img/facebook-logo.svg

<svg width="24" height="24" viewBox="0 0 24 24" fill="none" xmlns="http://www.w3.org/2000/svg">
<path d="M12.001 2.00195C6.47895 2.00195 2.00195 6.47895 2.00195 12.001C2.00195 16.991 5.65795 21.127 10.439 21.88V14.892H7.89895V12.001H10.439V9.79795C10.439 7.28995 11.932 5.90695 14.215 5.90695C15.309 5.90695 16.455 6.10195 16.455 6.10195V8.56095H15.191C13.951 8.56095 13.563 9.33295 13.563 10.124V11.999H16.334L15.891 14.89H13.563V21.878C18.344 21.129 22 16.992 22 12.001C22 6.47895 17.523 2.00195 12.001 2.00195Z" fill="#BDBDBD"/>
</svg>

<svg xmlns="http://www.w3.org/2000/svg" width="24" height="24" fill="none"><path d="M12.001 2.002a10 10 0 0 0-9.999 9.999c0 4.99 3.656 9.126 8.437 9.879v-6.988h-2.54v-2.891h2.54V9.798c0-2.508 1.493-3.891 3.776-3.891a15.44 15.44 0 0 1 2.24.195v2.459h-1.264c-1.24 0-1.628.772-1.628 1.563v1.875h2.771l-.443 2.891h-2.328v6.988a10 10 0 0 0-1.562-19.876z" fill="#bdbdbd"/></svg>
